dist/svgs/unicons/line/align-right-justify.svg

<svg xmlns="http://www.w3.org/2000/svg" viewBox="0 0 24 24"><path d="M3 5h18a1 1 0 000-2H3a1 1 0 000 2zm18 14H11a1 1 0 000 2h10a1 1 0 000-2zm0-8H3a1 1 0 000 2h18a1 1 0 000-2zm0 4H3a1 1 0 000 2h18a1 1 0 000-2zm0-8H3a1 1 0 000 2h18a1 1 0 000-2z"/></svg>

<svg xmlns="http://www.w3.org/2000/svg" viewBox="0 0 24 24"><path d="M3,5H21a1,1,0,0,0,0-2H3A1,1,0,0,0,3,5ZM21,19H11a1,1,0,0,0,0,2H21a1,1,0,0,0,0-2Zm0-8H3a1,1,0,0,0,0,2H21a1,1,0,0,0,0-2Zm0,4H3a1,1,0,0,0,0,2H21a1,1,0,0,0,0-2Zm0-8H3A1,1,0,0,0,3,9H21a1,1,0,0,0,0-2Z"/></svg>
